X:1
T:Title
%%score { 1 | ( 2 3 ) }
L:1/8
M:6/8
K:A
V:1 treble nm="Grand Piano"
V:2 bass 
V:3 bass 
V:1
 z3 z2[Q:1/4=87] [A,C]/[B,D]/ | [CE]>[=C^D][^CE] [Ec]2 [DB] | [DB] [CA]2- [CA] z [EA]/[EA]/ | %3
 [FA]>[^EG][FA] [FB][FA][DF] | [CE]3- [CE]2 [CE]/[CE]/ | [CE]>[CA][CA] [EA]Bc | %6
 [Fd] [Fd]2- [Fd] z [Fd]/d/ | c>BA GAB |[M:5/8] [CA]-[CA]- [CA]3 |[M:1/8] [Ec] | %10
[M:3/4] [Ec]>[^D=c] [E^c] [CA]2 [EA] | B>A F [CE]3 | A>A AA GA | [^DB][DB] [Dc] [EB]3 | %14
 [Ec]>[^D=c] [E^c] [CA]2 [EA] | [FB][FA] [DF] [CE]3 | [DF][FA] [Fd]c/c/- cB | %17
[M:5/8] [CA]-[CA]- [CA]3 |] %18
V:2
 z3 z2 [A,,E,] | [A,,A,]>[A,,A,][A,,A,] [E,A,]2 [E,G,] | [A,,A,] [A,,A,]2- [A,,A,] z [C,A,] | %3
 [D,A,]>[D,A,][D,A,] [D,A,][D,A,][D,A,] | [A,,A,]3- [A,,A,]2 [A,,A,]/[A,,A,]/ | %5
 [A,,A,]>[A,,A,][A,,A,] [C,A,][E,G,E][A,E] | [D,A,] [D,A,]2- [D,A,] z z/ F/ | %7
 [E,A,E]>[E,A,D][E,A,C] [E,B,D][E,A,C][E,G,D] |[M:5/8] [A,,A,]-[A,,A,]- [A,,A,]3 |[M:1/8] [A,,A,] | %10
[M:3/4] [A,,A,]>[A,,A,] [A,,A,] [A,,E,]2 [C,E,] | [D,F,D]>[D,F,D] [D,A,D] [A,,A,]3 | %12
 [F,A,C]>[F,A,C] [F,A,C][F,A,C] [F,B,C][F,A,C] | [B,,F,][B,,F,] [B,,A,] [E,G,]3 | %14
 [A,,A,]>[A,,A,] [A,,A,] [A,,E,]2 [C,A,] | [D,A,][D,A,] [D,A,] [A,,A,]3 | %16
 [D,A,][D,A,] [D,A,][E,A,E]/[E,A,E]/- [E,A,E][E,G,D] |[M:5/8] [A,,A,]-[A,,A,]- [A,,A,]3 |] %18
V:3
 x6 | x6 | x6 | x6 | x6 | x6 | z3 z2 [D,A,] | x6 |[M:5/8] x5 |[M:1/8] x |[M:3/4] x6 | x6 | x6 | %13
 x6 | x6 | x6 | x6 |[M:5/8] x5 |] %18

